X:12012
T:Lillibulero
R:Jig
C:Purcell, 1689, after trad.
O:Ireland
Z:Paul Hardy's Session Tunebook 2015 (see www.paulhardy.net). Creative Commons cc by-nc-sa licenced.
M:6/8
L:1/8
Q:3/8=110
K:G
"G" G>AG B2 B|"D" A>BA c3|"G" BdG "C"c2 B|"D" AGF"G"G3:|
|"G"g2 f g2 d|de=f "C"e2 d|"G" def gde|"G"dcB"D"A2d|
"C" edc "G" Bcd|"C" edc "G" Bcd|"C" e2G "Am"c2 B|"D" AGF "G"G3|]

